build/flags/Afghanistan.svg

<svg xmlns="http://www.w3.org/2000/svg" fill="none" viewBox="0 0 28 28" focusable="false"><defs><filter id="Afghanistan_svg__a"><feColorMatrix values="0 0 0 0 1 0 0 0 0 1 0 0 0 0 1 0 0 0 1 0"/></filter></defs><mask id="Afghanistan_svg__b" width="28" height="20" x="0" y="4" maskUnits="userSpaceOnUse"><g filter="url(#Afghanistan_svg__a)"><rect width="28" height="20" y="4" fill="#FFF" rx="3"/><rect width="28" height="20" y="4" stroke="#969696" stroke-opacity="0" stroke-width="0" rx="3"/></g></mask><path fill="none" d="M0 0H28V28H0z"/><rect width="28" height="20" y="4" fill="#FFF" rx="3"/><rect width="28" height="20" y="4" rx="3"/><g mask="url(#Afghanistan_svg__b)"><path fill="#1AB11F" d="M13.333 4H28V24H13.333z"/><path d="M13.333 4H28V24H13.333z"/><path fill="#262626" fill-rule="evenodd" d="M0 24L9.33333 24L9.33333 4L0 4L0 24Z"/><path d="M9.33333 24L9.33333 4L0 4L0 24L9.33333 24Z"/><path fill="#DC0D18" fill-rule="evenodd" d="M9.33331 24L18.6666 24L18.6666 4L9.33331 4L9.33331 24Z"/><path d="M18.6666 24L18.6666 4L9.33331 4L9.33331 24L18.6666 24Z"/><g style="mix-blend-mode:normal"><path fill="none" d="M12.6636 15.6415C11.8682 15.1799 11.3333 14.3191 11.3333 13.3333L12.6636 15.6415ZM16.6666 13.3333C16.6666 14.2778 16.1756 15.1077 15.4348 15.5814L16.6666 13.3333Z" opacity=".75"/><path stroke="#FFF" stroke-linecap="round" stroke-width="1.333" d="M12.6636 15.6415C11.8682 15.1799 11.3333 14.3191 11.3333 13.3333L12.6636 15.6415ZM16.6666 13.3333C16.6666 14.2778 16.1756 15.1077 15.4348 15.5814L16.6666 13.3333Z" opacity=".75"/></g><path fill="#FFF" fill-opacity=".5" fill-rule="evenodd" d="M14 14.6667C14.7364 14.6667 15.3334 13.7713 15.3334 12.6667C15.3334 11.5621 14.7364 10.6667 14 10.6667C13.2636 10.6667 12.6667 11.5621 12.6667 12.6667C12.6667 13.7713 13.2636 14.6667 14 14.6667Z"/><path d="M15.3334 12.6667C15.3334 11.5621 14.7364 10.6667 14 10.6667C13.2636 10.6667 12.6667 11.5621 12.6667 12.6667C12.6667 13.7713 13.2636 14.6667 14 14.6667C14.7364 14.6667 15.3334 13.7713 15.3334 12.6667Z"/></g></svg>

<svg xmlns="http://www.w3.org/2000/svg" fill="none" viewBox="0 0 28 28" focusable="false"><path fill="none" d="M0 0h28v28H0z"/><rect width="28" height="20" y="4" fill="#FFF" rx="3"/><rect width="28" height="20" y="4" rx="3"/><mask id="Afghanistan_svg__a" width="28" height="20" x="0" y="4" mask-type="alpha" maskUnits="userSpaceOnUse"><rect width="28" height="20" y="4" fill="#FFF" rx="3"/><rect width="28" height="20" y="4" stroke="#979797" stroke-opacity="0" stroke-width="0" rx="3"/></mask><g mask="url(#Afghanistan_svg__a)"><path fill="#1AB11F" d="M13.333 4H28v20H13.333z"/><path d="M13.333 4H28v20H13.333z"/></g><g mask="url(#Afghanistan_svg__a)"><path fill="#262626" fill-rule="evenodd" d="M0 24h9.33V4H0z"/><path d="M9.33 24V4H0v20z"/></g><g mask="url(#Afghanistan_svg__a)"><path fill="#DC0D18" fill-rule="evenodd" d="M9.33 24h9.33V4H9.33z"/><path d="M18.66 24V4H9.33v20z"/></g><g mask="url(#Afghanistan_svg__a)" opacity=".75"><mask id="Afghanistan_svg__b" fill="#fff"><path fill-rule="evenodd" d="M12.664 15.641a2.67 2.67 0 0 1-1.33-2.308zm4.003-2.308c0 .945-.491 1.775-1.232 2.248z" clip-rule="evenodd"/></mask><path fill="none" d="M12.664 15.641a2.67 2.67 0 0 1-1.33-2.308zm4.003-2.308c0 .945-.491 1.775-1.232 2.248z" clip-rule="evenodd" mask="url(#Afghanistan_svg__b)"/><path fill="#FFF" d="M12.329 16.218q-.759-.44-1.203-1.196-.46-.78-.46-1.689v-2.492l2.575 4.468zm.67-1.153-.335.576-.578.333-1.33-2.308.577-.333H12q0 .546.275 1.013.267.454.723.719m4.334-1.732q0 .87-.423 1.627-.41.731-1.116 1.183l-.944-.882 1.232-2.248zm-1.333 0h.667l.584.32-1.232 2.249-.584-.32-.36-.562q.426-.272.672-.712.253-.452.253-.975"/></g><g mask="url(#Afghanistan_svg__a)"><path fill="#FFF" fill-opacity=".5" fill-rule="evenodd" d="M14 14.66c.73 0 1.33-.89 1.33-2 0-1.1-.6-2-1.33-2-.74 0-1.34.9-1.34 2 0 1.11.6 2 1.34 2"/><path d="M15.33 12.66c0-1.1-.6-2-1.33-2-.74 0-1.34.9-1.34 2 0 1.11.6 2 1.34 2 .73 0 1.33-.89 1.33-2"/></g></svg>
